libs/ui/packages/crypto-icons/src/svg/KMD.svg

<svg width="24" height="24" viewBox="0 0 24 24" fill="none">
<path d="M3.75 11.9921C3.74579 14.1801 4.61095 16.2802 6.15514 17.8303C7.69934 19.3805 9.79609 20.2537 11.9841 20.2579C14.1722 20.2621 16.2723 19.397 17.8224 17.8528C19.3726 16.3086 20.2458 14.2118 20.25 12.0238V11.9606C20.2472 11.3256 20.1714 10.693 20.0243 10.0753C19.9993 9.96029 19.9516 9.85141 19.884 9.75505C19.8164 9.65868 19.7303 9.57677 19.6307 9.51409C19.531 9.45142 19.4199 9.40925 19.3038 9.39005C19.1877 9.37085 19.0689 9.37501 18.9544 9.40227C18.8399 9.42954 18.732 9.47938 18.637 9.54886C18.542 9.61834 18.4618 9.70608 18.4011 9.80693C18.3404 9.90779 18.3005 10.0197 18.2836 10.1362C18.2667 10.2527 18.2732 10.3714 18.3028 10.4853C18.6316 11.8587 18.503 13.3019 17.9366 14.5955C17.3701 15.8892 16.3968 16.9625 15.1645 17.6523C13.9322 18.3421 12.5084 18.6108 11.1095 18.4174C9.71062 18.224 8.41312 17.5791 7.41425 16.5808C6.41537 15.5825 5.76976 14.2854 5.57556 12.8866C5.38135 11.4878 5.64917 10.0638 6.33829 8.83116C7.02742 7.5985 8.10017 6.62456 9.39348 6.05737C10.6868 5.49018 12.1299 5.36077 13.5035 5.68881C13.7299 5.73799 13.9665 5.69644 14.1626 5.57308C14.3587 5.44972 14.4986 5.25439 14.5523 5.02902C14.606 4.80366 14.5691 4.56623 14.4497 4.36772C14.3303 4.16921 14.1378 4.02545 13.9135 3.96731C12.7014 3.67808 11.4394 3.66725 10.2225 3.93563C9.00556 4.20401 7.86525 4.74462 6.88719 5.51686C5.90913 6.2891 5.11875 7.2729 4.5754 8.39438C4.03205 9.51587 3.74985 10.7459 3.75 11.9921Z" fill="#2B6680"/>
<path d="M16.1701 5.95754C16.1581 5.96879 16.1503 5.98204 16.1391 5.99404C15.9379 6.20727 15.8144 6.48204 15.7886 6.77404V6.91429C15.7886 6.94679 15.7816 6.97804 15.7781 7.01029C15.7435 7.35953 15.6313 7.69663 15.4498 7.99697C15.2682 8.29731 15.0219 8.5533 14.7287 8.74625C14.4356 8.93919 14.103 9.06422 13.7554 9.1122C13.4077 9.16017 13.0538 9.12988 12.7193 9.02354C12.2309 8.90448 11.7205 8.90862 11.234 9.0356C10.7476 9.16259 10.3003 9.40843 9.93232 9.75104C9.90232 9.77904 9.86932 9.80279 9.83982 9.83229C9.26731 10.4048 8.94567 11.1812 8.94565 11.9908C8.94562 12.8004 9.26722 13.5769 9.83969 14.1494C10.4122 14.7219 11.1886 15.0436 11.9982 15.0436C12.8078 15.0436 13.5843 14.722 14.1568 14.1495C14.2831 14.0215 14.3976 13.882 14.4988 13.7333C14.7453 13.3804 14.9143 12.9794 14.9948 12.5566C15.0753 12.1338 15.0654 11.6988 14.9658 11.28C14.9488 11.2252 14.9338 11.1697 14.9208 11.1138C14.9208 11.1055 14.9158 11.0978 14.9138 11.0893C14.8378 10.76 14.8335 10.4183 14.9012 10.0872C14.9689 9.75618 15.1069 9.44354 15.306 9.17051C15.5051 8.89749 15.7606 8.67047 16.0551 8.50483C16.3496 8.3392 16.6763 8.23884 17.0131 8.21054C17.0306 8.21054 17.0476 8.20554 17.0651 8.20504C17.1148 8.20504 17.1646 8.19929 17.2143 8.19929H17.2263C17.5311 8.17123 17.8164 8.037 18.0323 7.82004C18.0836 7.76704 18.1303 7.70979 18.1723 7.64904C18.362 7.38021 18.444 7.05004 18.4021 6.72371C18.3603 6.39739 18.1976 6.0986 17.9463 5.88632C17.6949 5.67405 17.3731 5.56371 17.0444 5.57708C16.7156 5.59045 16.4039 5.72655 16.1706 5.95854" fill="#2B6680"/>
</svg>

<svg width="24" height="24" viewBox="0 0 24 24" fill="none"><path fill="#2b6680" d="M3.75 11.992a8.25 8.25 0 1 0 16.5.032v-.063a8.3 8.3 0 0 0-.226-1.886.885.885 0 1 0-1.721.41 6.484 6.484 0 1 1-4.8-4.796.885.885 0 0 0 .41-1.722A8.25 8.25 0 0 0 3.75 11.992"/><path fill="#2b6680" d="M16.17 5.958q-.017.017-.03.036a1.3 1.3 0 0 0-.351.78v.14c0 .033-.007.064-.01.096a2.357 2.357 0 0 1-3.06 2.014 3.04 3.04 0 0 0-2.787.727c-.03.028-.063.052-.092.081a3.053 3.053 0 1 0 4.317 4.317 3 3 0 0 0 .342-.416 3.05 3.05 0 0 0 .467-2.453 2 2 0 0 1-.045-.166q-.002-.012-.007-.025a2.357 2.357 0 0 1 2.1-2.878c.017 0 .034-.005.051-.006.05 0 .1-.006.15-.006h.011c.305-.028.59-.162.806-.379q.078-.08.14-.171a1.315 1.315 0 0 0-2.001-1.69"/></svg>
